X:1
T:James Gibb editions
T:Vexilla Regis - Terrabugio
T:#
%%score { 1 | 2 } 3
L:1/8
Q:1/4=92
M:4/4
K:C
V:1 treble-8 nm="Tenor I" snm="T"
V:2 treble-8 
V:3 bass nm="Bass" snm="B"
V:1
 z4"^Vexilla Regis, op.81/1""^Giuseppe Terrabugio\n (1842-1933)""^maestoso"!f! c4 | (d4 c2) f2 | %2
w: Ve-|xil\- * la|
 (f2 e2 c2)"^," d2 | (dc c4) B2 |"^," c2 (AB cd) e2 |[M:4/4][K:treble-8] d4 (c4 | B4) z2 e2 | %7
w: Re\- * * gis|pro\- * * de-|unt: ful\- * * * get|cru- cis|* my-|
!>(! d2 d2 d4!>)! |!p! (G2 c3 BAG) | A4"^," G4 | (F2 f2 e2) f2 |!f! e6 d2 | e4!p!"^," d4 | d4 c4 | %14
w: ste- ri- um:|qua * * * *|vi- ta|mor\- * * tem|per- tu-|lit, et|mor- te|
 z2!f! c4 c2 |!>(! (d3 c) B2!>)! B2 |!pp! !fermata!^c8 |] %17
w: vi- tam|pro\- * * tu\-|lit.|
V:2
!f! A4 (c4- | c3 B) A4 | (G4 E2) G2- | G2 (^F2 G2) (G>=F) | E4 z2 c2- | %5
w: Ve- xil\-|* * la|Re\- * gis|* pro\- * de\- *|unt: ful\-|
[M:4/4][K:treble-8] c2 B4 (A2- | A2 ^G2)"^," A2 c2 |!>(! B2 A2 B4!>)! |!p! (E4 AGFE) | F4"^," E4 | %10
w: * get cru\-|* * cis my-|ste- ri- um:|qua * * * *|vi- ta|
 (D2 A2 G2) A2 |!f! c6 B2 | c4!p!"^," _B4 | (_BAFG) E4 | z2!f! E4 A2 |!>(! (=B2 A4)!>)! ^G2 | %16
w: mor\- * * tem|per- tu-|lit, et|mor\- * * * te|vi- tam|pro\- * tu\-|
!pp! !fermata!E8 |] %17
w: lit.|
V:3
 z8 |!f! (G,4 A,4) | (C2 C,4) B,,2 | A,,2 D,2 E,2 D,2 |"^," A,,2 (A,G, F,2) E,2 | %5
w: |Ve\- *|xil\- * la|Re- gis pro- de-|unt: ful\- * * get|
[M:4/4] (F,2 G,2 A,2) A,,2 | z2 E,2 (C,D,E,^F, |!>(! G,2) ^F,2 G,4!>)! | z8 | z2!p! D,2 D,2 ^C,2 | %10
w: cru\- * * cis|my- ste\- * * *|* ri- um:||qua vi- ta|
 (A,,2 D,4) D,2 |!f! (A,2 F,2 G,2) G,,2 | C,4!p!"^," G,4 | (G,,2 _B,,2) A,,4 | z2!f! A,4 F,2 | %15
w: mor\- * tem|per\- * * tu-|lit, et|mor\- * te|vi- tam|
!>(! (D,2 F,E, D,2) E,2!>)! |!pp! !fermata!A,,8 |] %17
w: pro\- * * * tu\-|lit.|

